X:1
T:Title
%%score { 1 | ( 2 3 ) }
L:1/8
Q:1/4=84
M:6/8
K:B
V:1 treble nm="Grand Piano"
V:2 bass 
V:3 bass 
V:1
 [B,D]>[CE][DF] [DF]ED | G3 B3 | [DB]6 | A>AA ABc | B3 c3 | [Fd]6 | [Fd]>[Ec][DB] [DF][B,D][DF] | %7
w: Charles~S.~Brown * * * * *|||||||
 [EG]3 [EB]3 | [DB]6 |] %9
w: ||
V:2
 [B,,F,]>[B,,F,][B,,B,] B,[F,C][B,,F,B,] | [E,B,]3 [E,G,E]3 | [B,,F,]6 | %3
 [F,C]>[F,C][F,C] [F,C][F,B,D][F,A,E] | [F,B,D]3 [F,A,E]3 | [B,,B,]6 | %6
 B,>F,[B,,F,] [B,,B,][B,,F,][B,,B,] | [E,B,]3 [E,G,]3 | [B,,F,]6 |] %9
V:3
 z3 .B,,3 | x6 | x6 | x6 | x6 | x6 | .B,,3 z3 | x6 | x6 |] %9

